X: 449
T: Xiangqinqin xiangde jianbushang mian
L: 1/8
M: 2/4
K: F
dd2d/ e/ [I:setbarnb 1]| 
d cA2 | 
A c d f/ e/ | 
d4 | 
dd2d/ e/ | 
d cA2 | 
A c d c | 
AG3 |]

@@@ Tune index: 9323
